X: 31542
T: Padraic MacDonnchadha's
R: reel
M: 4/4
K: Edorian
BE3 d3B|ADED FGA=c|BE3 GABc|1 dcdf e2dc:|2 dBA=c BEEF||
e3f g2fe|defg afdf|eBef gefe|dBAc BEEf|
e3f g2fe|defg afdf|g2fg fgfe|dBAF EFGA||

